contributed-vectors/boosted.svg

<svg xmlns="http://www.w3.org/2000/svg" xml:space="preserve" style="fill-rule:evenodd;clip-rule:evenodd;stroke-linejoin:round;stroke-miterlimit:2" viewBox="0 0 192 192"><path d="M164.5 21.5c0-5.519-4.481-10-10-10h-133c-5.519 0-10 4.481-10 10v133c0 5.519 4.481 10 10 10h133c5.519 0 10-4.481 10-10v-133Z" style="fill:#fff" transform="translate(8 8)"/><path d="M72.904 89.244c-2.768-11.138-4.569-19.415-3.588-18.622 9.745 7.869 26.375 10.843 40.523 11.808 14.431 1.055 25.601 13.071 25.601 27.541v.77a30.383 30.383 0 0 1-30.383 30.383H73.025a8.702 8.702 0 0 1-8.702-8.702V89.244h8.581Z" style="fill:#73ada4"/><path d="M119.915 77.003c-1.201 17.738-30.092 23.234-46.031 40.291-16.549 17.711-1.756 23.781-1.659 23.83-4.962-.86-11.599-5.288-11.774-13.235V74.085a22.906 22.906 0 0 1 22.907-22.907h13.65a22.906 22.906 0 0 1 22.907 22.907v2.918Z" style="fill:#96dfd3"/></svg>

<?xml version="1.0" encoding="UTF-8" standalone="no"?>
<!DOCTYPE svg PUBLIC "-//W3C//DTD SVG 1.1//EN" "http://www.w3.org/Graphics/SVG/1.1/DTD/svg11.dtd">
<svg width="100%" height="100%" viewBox="0 0 192 192" version="1.1" xmlns="http://www.w3.org/2000/svg" xmlns:xlink="http://www.w3.org/1999/xlink" xml:space="preserve" xmlns:serif="http://www.serif.com/" style="fill-rule:evenodd;clip-rule:evenodd;stroke-linejoin:round;stroke-miterlimit:2;">
    <g id="Layer1">
        <g transform="matrix(1,0,0,1,8,8)">
            <path d="M164.5,21.5C164.5,15.981 160.019,11.5 154.5,11.5L21.5,11.5C15.981,11.5 11.5,15.981 11.5,21.5L11.5,154.5C11.5,160.019 15.981,164.5 21.5,164.5L154.5,164.5C160.019,164.5 164.5,160.019 164.5,154.5L164.5,21.5Z" style="fill:white;"/>
        </g>
        <g>
            <path d="M72.904,89.244C70.136,78.106 68.335,69.829 69.316,70.622C79.061,78.491 95.691,81.465 109.839,82.43C124.27,83.485 135.44,95.501 135.44,109.971C135.44,110.227 135.44,110.484 135.44,110.741C135.44,118.799 132.239,126.527 126.541,132.225C120.843,137.923 113.115,141.124 105.057,141.124L73.025,141.124C68.219,141.124 64.323,137.228 64.323,132.422L64.323,89.244L72.904,89.244Z" style="fill:rgb(115,173,164);"/>
            <path d="M119.915,77.003C118.714,94.741 89.823,100.237 73.884,117.294C57.335,135.005 72.128,141.075 72.225,141.124C67.263,140.264 60.626,135.836 60.451,127.889L60.451,74.085C60.451,68.01 62.865,62.183 67.161,57.888C71.457,53.592 77.283,51.178 83.358,51.178L97.008,51.178C103.083,51.178 108.909,53.592 113.205,57.888C117.501,62.183 119.915,68.01 119.915,74.085L119.915,77.003Z" style="fill:rgb(150,223,211);"/>
        </g>
    </g>
</svg>
